X:1
T:Title
%%score 1 2
L:1/8
M:4/4
K:D
V:1 treble nm="Grand Piano, Unnamed-000"
V:2 bass nm="Choir Pad, Unnamed-001"
V:1
 [FA]>[GB] [FA][DF] D2 [Fd]2 | [GB]>[GB] [Gd]>[GB] [FA]4 | [FA]>[GB] [FA][DF] D2 [DF]2 | %3
w: By~Philip~Paul~Bliss,~19a~jc. * * * * *|||
 [CE]>[B,D] [CE][DF] [CE]4 | [FA]>[GB] [FA][DF] D2 [Fd]2 | [GB]>[GB] [Gd]>[GB] [FA]4 | %6
w: |||
 [CA]>[DB] [Ec][Fd] [Ge]2 [Ec]2 | [Fd]6 z2 | [Ec]>[Ec] [Ec][Fd] [Ge]4 | [Fd]>[Fd] [Gd][GB] [FA]4 | %10
w: ||||
 [DF]>[DF] [DF][FA] [GB][GA][GB][Gd] | [^Ge]2 [Gd]2 [Ac]4 | [Fd]>[Fc] [Fd][GB] [FA]2 [DF]2 | %13
w: |||
 [DG]>[DF] G[GA] [GB]4 | [CA]>[DB] [Ec][Fd] [Ge]2 [Ec]2 | [Fd]6 z2 |] %16
w: |||
V:2
 [D,D]>[D,D] [D,D][D,A,] [F,A,]2 [D,A,]2 | G,>G, [G,B,]>[G,D] [D,D]4 | %2
 [D,D]>[D,D] [D,D][D,A,] [F,A,]2 [D,A,]2 | A,>A, A,A, A,4 | %4
 [D,D]>[D,D] [D,D][D,A,] [F,A,]2 [D,A,]2 | G,>G, [G,B,]>[G,D] [D,D]4 | A,>A, A,A, A,2 A,2 | %7
 [D,A,]6 z2 | A,>A, A,A, A,4 | [D,A,]>[D,A,] [D,B,][D,D] [D,D]4 | %10
 [D,A,]>[D,A,] [D,A,][D,D] [G,D][G,D][G,D][G,B,] | [E,B,]2 [E,B,]2 A,4 | %12
 [D,A,]>[D,A,] [D,A,][D,B,] [D,D]2 [D,A,]2 | [G,B,]>[G,B,] [G,B,][G,C] [G,D]4 | %14
 A,>A, A,A, A,2 A,2 | [D,A,]6 z2 |] %16

